svg/fluentui-system-icons/ic_fluent_xbox_controller_20_regular.svg

<svg width="20" height="20" viewBox="0 0 20 20" fill="none" xmlns="http://www.w3.org/2000/svg">
<path d="M8.33392 4.71096C7.90031 4.49327 7.42174 4.45818 6.98277 4.54154L6.08866 4.71131C5.37296 4.84721 4.75644 5.3059 4.42327 5.95567C3.31322 8.1206 2.47927 9.88767 2.15262 11.3931C1.81754 12.9375 2.00689 14.2539 2.97306 15.4543C3.62762 16.2675 4.77323 16.1046 5.37199 15.4285C5.8395 14.9006 6.36936 14.2924 6.88475 13.6965C7.267 13.2545 7.82125 13 8.40387 13H11.59C12.1727 13 12.7269 13.2545 13.1092 13.6965C13.6246 14.2924 14.1544 14.9006 14.6219 15.4285C15.2207 16.1046 16.3663 16.2675 17.0209 15.4543C17.987 14.2539 18.1764 12.9375 17.8413 11.3932C17.5147 9.88768 16.6807 8.12061 15.5707 5.95569C15.2375 5.30592 14.621 4.84722 13.9053 4.71133L13.0112 4.54155C12.5722 4.4582 12.0936 4.49329 11.66 4.71097L11.6028 4.73991C11.2754 4.90672 10.93 5.00001 10.5881 5.00001H9.40584C9.06399 5.00001 8.71853 4.90672 8.39116 4.73991L8.33392 4.71096ZM7.16931 5.52398C7.43176 5.47415 7.68081 5.50202 7.88526 5.60466L7.93716 5.63091C8.38148 5.85731 8.8816 6.00001 9.40584 6.00001H10.5881C11.1123 6.00001 11.6125 5.85731 12.0568 5.63092L12.1087 5.60467C12.3131 5.50203 12.5622 5.47416 12.8246 5.524L13.7187 5.69377C14.1331 5.77245 14.4892 6.03818 14.6808 6.41195C15.7995 8.59364 16.5695 10.2476 16.864 11.6052C17.1502 12.9239 16.978 13.9127 16.2419 14.8272C16.0613 15.0516 15.6548 15.0865 15.3706 14.7655C14.9067 14.2417 14.3796 13.6368 13.8655 13.0423C13.2945 12.382 12.4648 12 11.59 12H8.40387C7.52913 12 6.69944 12.382 6.12838 13.0423C5.61427 13.6368 5.08724 14.2417 4.62337 14.7655C4.33908 15.0865 3.93262 15.0516 3.75206 14.8272C3.01593 13.9127 2.84375 12.9239 3.12988 11.6052C3.42445 10.2476 4.19447 8.59362 5.31311 6.41194C5.50476 6.03817 5.86085 5.77243 6.27521 5.69376L7.16931 5.52398ZM9.99945 8.50003C10.4137 8.50003 10.7495 8.16424 10.7495 7.75003C10.7495 7.33582 10.4137 7.00003 9.99945 7.00003C9.58524 7.00003 9.24945 7.33582 9.24945 7.75003C9.24945 8.16424 9.58524 8.50003 9.99945 8.50003Z" fill="#212121"/>
</svg>

<svg xmlns="http://www.w3.org/2000/svg" width="20" height="20"><path d="M8.334 4.711a2.12 2.12 0 0 0-1.351-.17l-.894.17a2.369 2.369 0 0 0-1.666 1.245c-1.11 2.165-1.944 3.932-2.27 5.437-.335 1.544-.146 2.86.82 4.061.655.813 1.8.65 2.399-.026.468-.527.997-1.136 1.513-1.732A2.01 2.01 0 0 1 8.404 13h3.186a2.01 2.01 0 0 1 1.52.697c.515.595 1.044 1.204 1.512 1.732.599.676 1.744.838 2.399.025.966-1.2 1.155-2.517.82-4.06-.326-1.506-1.16-3.273-2.27-5.438a2.369 2.369 0 0 0-1.666-1.245l-.894-.17a2.12 2.12 0 0 0-1.351.17l-.057.029c-.328.167-.673.26-1.015.26H9.406c-.342 0-.687-.093-1.015-.26l-.057-.029Zm-1.165.813c.263-.05.512-.022.716.08l.052.027c.444.226.945.369 1.469.369h1.182c.524 0 1.025-.143 1.469-.37l.052-.025c.204-.103.453-.13.716-.081l.894.17c.414.078.77.344.962.718 1.119 2.182 1.889 3.836 2.183 5.193.286 1.319.114 2.308-.622 3.222-.18.225-.587.26-.871-.062-.464-.523-.991-1.128-1.505-1.723A3.01 3.01 0 0 0 11.59 12H8.404a3.01 3.01 0 0 0-2.276 1.042c-.514.595-1.04 1.2-1.505 1.723-.284.321-.69.287-.87.062-.737-.914-.91-1.903-.623-3.222.294-1.357 1.064-3.011 2.183-5.193.192-.374.548-.64.962-.718l.894-.17ZM10 8.5A.75.75 0 1 0 10 7a.75.75 0 0 0 0 1.5Z"/></svg>
